icons/arrow-block-toprightB.svg

<svg width="24" height="24" viewBox="0 0 24 24" fill="none" xmlns="http://www.w3.org/2000/svg">
<path d="M15.6013 16.8329L13.2013 14.4329L8.80127 18.8329C8.60127 19.0329 8.20127 19.0329 8.00127 18.8329L5.20127 16.0329C5.00127 15.8329 5.00127 15.4329 5.20127 15.2329L9.60127 10.8329L7.10127 8.43288C7.00127 8.23288 7.00127 8.03288 7.20127 7.93288L18.2013 5.03288C18.6013 4.93288 19.1013 5.33288 18.9013 5.73288L16.0013 16.7329C16.0013 16.9329 15.7013 17.0329 15.6013 16.8329Z" fill="black"/>
<path fill-rule="evenodd" clip-rule="evenodd" d="M18.0986 5.83561L8.19772 8.44584L10.6729 10.822L5.86193 15.6329L8.40127 18.1723L13.2013 13.3723L15.5044 15.6754L18.0986 5.83561ZM19.6109 5.98316C19.8394 5.42912 19.5846 4.91891 19.2831 4.64255C18.9822 4.36676 18.5062 4.18359 18.0194 4.3053L6.93516 7.22744L6.86586 7.26209C6.55797 7.41603 6.3455 7.69497 6.29631 8.03934C6.25406 8.33509 6.34369 8.59481 6.43045 8.76832L6.4884 8.88422L8.52968 10.8438L4.67094 14.7026C4.39846 14.9751 4.30127 15.3341 4.30127 15.6329C4.30127 15.9318 4.39846 16.2908 4.67094 16.5632L7.47094 19.3632C7.74342 19.6357 8.10241 19.7329 8.40127 19.7329C8.70013 19.7329 9.05912 19.6357 9.3316 19.3632L13.2013 15.4936L15.0118 17.3041C15.2766 17.6757 15.7234 17.7459 16.0448 17.6541C16.3432 17.5688 16.6863 17.2992 16.7431 16.861L19.6109 5.98316Z" fill="black"/>
</svg>

<svg xmlns="http://www.w3.org/2000/svg" fill="none" viewBox="0 0 24 24">
  <path fill="#000" d="m15.601 16.833-2.4-2.4-4.4 4.4c-.2.2-.6.2-.8 0l-2.8-2.8c-.2-.2-.2-.6 0-.8l4.4-4.4-2.5-2.4c-.1-.2-.1-.4.1-.5l11-2.9c.4-.1.9.3.7.7l-2.9 11c0 .2-.3.3-.4.1Z"/>
  <path fill="#000" fill-rule="evenodd" d="m18.099 5.836-9.901 2.61 2.475 2.376-4.811 4.81 2.54 2.54 4.8-4.8 2.302 2.303 2.595-9.84Zm1.512.147c.228-.554-.026-1.064-.328-1.34-.3-.276-.777-.46-1.264-.338L6.935 7.227l-.07.035c-.307.154-.52.433-.569.777-.042.296.048.556.134.73l.058.115 2.042 1.96-3.86 3.859a1.315 1.315 0 0 0-.369.93c0 .299.097.658.37.93l2.8 2.8c.272.273.631.37.93.37.3 0 .658-.097.93-.37l3.87-3.87 1.81 1.811c.266.372.712.442 1.034.35.298-.085.641-.355.698-.793l2.868-10.878Z" clip-rule="evenodd"/>
</svg>
